src/icons/service-sumologic.svg

<?xml version="1.0" encoding="utf-8"?>
<!-- Generator: Adobe Illustrator 20.1.0, SVG Export Plug-In . SVG Version: 6.00 Build 0)  -->
<svg version="1.1" id="Layer_1" xmlns="http://www.w3.org/2000/svg" xmlns:xlink="http://www.w3.org/1999/xlink" x="0px" y="0px"
	 viewBox="0 0 14 14" style="enable-background:new 0 0 14 14;" xml:space="preserve">
<style type="text/css">
	.st0{fill:#000097;}
	.st1{fill:#FFFFFF;}
</style>
<title>HDL/Icon/Standard/Service/sumologic</title>
<desc>Created with Sketch.</desc>
<g id="Colors">
	<g id="Service-icons" transform="translate(-621.000000, -313.000000)">
		<g id="Sumologic_1_" transform="translate(600.000000, 295.000000)">
			<g id="HDL_x2F_Icon_x2F_Standard_x2F_Service_x2F_sumologic" transform="translate(21.000000, 18.000000)">
				<g id="Sumologic">
					<path id="Path" class="st0" d="M13.9,7c0,2.3,0,4.5,0,6.8c0,0.1,0,0.1-0.1,0.1c-4.5,0-9,0-13.6,0c-0.1,0-0.1,0-0.1-0.1
						c0-4.5,0-9.1,0-13.6c0-0.1,0-0.1,0.1-0.1c4.5,0,9,0,13.6,0c0.1,0,0.1,0,0.1,0.1C13.9,2.5,13.9,4.7,13.9,7z"/>
					<path id="Path_1_" class="st1" d="M3.9,7.9c0.4-0.5,1.3-0.5,1.6,0c0.1-0.2,0.3-0.3,0.6-0.4c0.2-0.1,0.4,0,0.7,0
						c0.3,0.2,0.5,0.5,0.5,1c0,0.7,0,1.3,0,2c0,0.1,0,0.1-0.1,0.1c-0.2,0-0.4,0-0.5,0c-0.1,0-0.1,0-0.1-0.1c0-0.5,0-1.1,0-1.6
						c0-0.1,0-0.2,0-0.3c0-0.2-0.1-0.3-0.3-0.4c-0.2,0-0.4,0-0.5,0.2C5.6,8.5,5.6,8.6,5.6,8.8c0,0.5,0,1.1,0,1.6
						c0,0.1,0,0.1-0.1,0.1c-0.2,0-0.3,0-0.5,0c-0.1,0-0.1,0-0.1-0.1c0-0.5,0-1.1,0-1.6c0-0.1,0-0.2,0-0.2c0-0.2-0.1-0.4-0.4-0.4
						C4.3,8.1,4.1,8.2,4,8.4C3.9,8.6,3.9,8.7,3.9,8.8c0,0.5,0,1.1,0,1.6c0,0.1,0,0.1-0.1,0.1c-0.2,0-0.3,0-0.5,0
						c-0.1,0-0.1,0-0.1-0.1c0-0.9,0-1.8,0-2.7c0-0.1,0-0.1,0.1-0.1c0.2,0,0.3,0,0.5,0c0.1,0,0.1,0,0.1,0.1C3.9,7.8,3.9,7.8,3.9,7.9z
						"/>
					<path id="Path_2_" class="st1" d="M8.2,9.1c0-0.1,0-0.3,0-0.4c0-0.1,0-0.3,0.1-0.4c0.3-0.5,0.8-0.7,1.4-0.7
						c0.5,0,1,0.3,1.2,0.8c0,0.1,0,0.1,0,0.2c0,0.3,0,0.7,0,1c0,0.1,0,0.1,0,0.2c-0.3,0.6-0.9,0.9-1.5,0.8c-0.5-0.1-0.8-0.3-1.1-0.7
						C8.2,9.8,8.2,9.7,8.2,9.5C8.2,9.4,8.2,9.2,8.2,9.1z"/>
					<path id="Path_3_" class="st1" d="M10.2,6.1C9.8,6.6,9,6.5,8.7,6.3C8.5,6.1,8.4,5.9,8.4,5.7c0-0.4,0-0.9,0-1.3
						c0-0.3,0-0.5,0-0.8c0-0.1,0-0.1,0.1-0.1c0.2,0,0.3,0,0.5,0c0.1,0,0.1,0,0.1,0.1c0,0.5,0,1.1,0,1.6v0.1c0,0.4,0.1,0.5,0.4,0.5
						c0.4,0,0.6-0.1,0.6-0.5c0-0.2,0-0.3,0-0.5c0-0.4,0-0.8,0-1.2c0-0.1,0-0.1,0.1-0.1c0.2,0,0.4,0,0.5,0c0.1,0,0.1,0,0.1,0.1
						c0,0.9,0,1.8,0,2.7c0,0.1,0,0.1-0.1,0.1c-0.2,0-0.3,0-0.5,0c-0.1,0-0.1,0-0.1-0.1C10.2,6.2,10.2,6.2,10.2,6.1z"/>
					<path id="Path_4_" class="st1" d="M5.6,5.5c0,0.5-0.2,0.8-0.8,0.9S3.6,6.4,3.1,6C3,5.9,3,5.9,3.1,5.8c0.1-0.1,0.2-0.2,0.3-0.3
						c0.1-0.1,0.1-0.1,0.2,0C3.8,5.7,4,5.8,4.3,5.8c0.2,0,0.4,0,0.5,0C4.9,5.8,5,5.7,5,5.6S4.9,5.4,4.8,5.3C4.5,5.2,4.3,5.2,4.1,5.2
						C3.8,5.1,3.6,5,3.4,4.9C3.3,4.8,3.2,4.7,3.2,4.5c0-0.1,0-0.2,0-0.2c0-0.3,0.1-0.5,0.4-0.7c0.5-0.3,1.5-0.2,2,0.2v0.1
						C5.4,4,5.3,4.1,5.3,4.2c0,0.1-0.1,0.1-0.1,0C4.9,4.1,4.6,4,4.4,4C4.2,4,4.1,4,4,4S3.8,4.1,3.8,4.3C3.9,4.4,4,4.5,4,4.5
						c0.3,0.1,0.5,0.1,0.8,0.2c0.2,0,0.3,0.1,0.5,0.2C5.5,5,5.6,5.1,5.6,5.5L5.6,5.5z"/>
					<path id="Path_5_" class="st0" d="M10.3,9.1c0,0.1,0,0.2,0,0.2c0,0.3-0.1,0.5-0.4,0.6C9.6,10,9.3,10,9.1,9.8
						C9,9.6,8.9,9.5,8.9,9.3s0-0.4,0-0.5c0-0.3,0.3-0.6,0.6-0.7c0.3,0,0.6,0.1,0.8,0.4c0.1,0.1,0,0.3,0,0.4C10.3,9,10.3,9,10.3,9.1z
						"/>
				</g>
			</g>
		</g>
	</g>
</g>
</svg>

<?xml version="1.0" encoding="UTF-8"?>
<svg width="14px" height="14px" viewBox="0 0 14 14" version="1.1" xmlns="http://www.w3.org/2000/svg" xmlns:xlink="http://www.w3.org/1999/xlink">
    <!-- Generator: Sketch 59 (86127) - https://sketch.com -->
    <title>HDL/Icon/Standard/Service/sumologic</title>
    <desc>Created with Sketch.</desc>
    <g id="Colors" stroke="none" stroke-width="1" fill="none" fill-rule="evenodd">
        <g id="Service-icons" transform="translate(-621.000000, -313.000000)">
            <g id="Sumologic" transform="translate(600.000000, 295.000000)">
                <g id="HDL/Icon/Standard/Service/sumologic" transform="translate(21.000000, 18.000000)">
                    <g id="Sumologic">
                        <path d="M13.9,7 C13.9,9.3 13.9,11.5 13.9,13.8 C13.9,13.9 13.9,13.9 13.8,13.9 C9.3,13.9 4.8,13.9 0.2,13.9 C0.1,13.9 0.1,13.9 0.1,13.8 C0.1,9.3 0.1,4.7 0.1,0.2 C0.1,0.1 0.1,0.1 0.2,0.1 C4.7,0.1 9.2,0.1 13.8,0.1 C13.9,0.1 13.9,0.1 13.9,0.2 C13.9,2.5 13.9,4.7 13.9,7 Z" id="Path" fill="#000097" fill-rule="nonzero"></path>
                        <path d="M3.9,7.9 C4.3,7.4 5.2,7.4 5.5,7.9 C5.6,7.7 5.8,7.6 6.1,7.5 C6.3,7.4 6.5,7.5 6.8,7.5 C7.1,7.7 7.3,8 7.3,8.5 C7.3,9.2 7.3,9.8 7.3,10.5 C7.3,10.6 7.3,10.6 7.2,10.6 C7,10.6 6.8,10.6 6.7,10.6 C6.6,10.6 6.6,10.6 6.6,10.5 C6.6,10 6.6,9.4 6.6,8.9 C6.6,8.8 6.6,8.7 6.6,8.6 C6.6,8.4 6.5,8.3 6.3,8.2 C6.1,8.2 5.9,8.2 5.8,8.4 C5.6,8.5 5.6,8.6 5.6,8.8 C5.6,9.3 5.6,9.9 5.6,10.4 C5.6,10.5 5.6,10.5 5.5,10.5 C5.3,10.5 5.2,10.5 5,10.5 C4.9,10.5 4.9,10.5 4.9,10.4 C4.9,9.9 4.9,9.3 4.9,8.8 C4.9,8.7 4.9,8.6 4.9,8.6 C4.9,8.4 4.8,8.2 4.5,8.2 C4.3,8.1 4.1,8.2 4,8.4 C3.9,8.6 3.9,8.7 3.9,8.8 C3.9,9.3 3.9,9.9 3.9,10.4 C3.9,10.5 3.9,10.5 3.8,10.5 C3.6,10.5 3.5,10.5 3.3,10.5 C3.2,10.5 3.2,10.5 3.2,10.4 C3.2,9.5 3.2,8.6 3.2,7.7 C3.2,7.6 3.2,7.6 3.3,7.6 C3.5,7.6 3.6,7.6 3.8,7.6 C3.9,7.6 3.9,7.6 3.9,7.7 C3.9,7.8 3.9,7.8 3.9,7.9 Z" id="Path" fill="#FFFFFF" fill-rule="nonzero"></path>
                        <path d="M8.2,9.1 C8.2,9 8.2,8.8 8.2,8.7 C8.2,8.6 8.2,8.4 8.3,8.3 C8.6,7.8 9.1,7.6 9.7,7.6 C10.2,7.6 10.7,7.9 10.9,8.4 C10.9,8.5 10.9,8.5 10.9,8.6 C10.9,8.9 10.9,9.3 10.9,9.6 C10.9,9.7 10.9,9.7 10.9,9.8 C10.6,10.4 10,10.7 9.4,10.6 C8.9,10.5 8.6,10.3 8.3,9.9 C8.2,9.8 8.2,9.7 8.2,9.5 C8.2,9.4 8.2,9.2 8.2,9.1 Z" id="Path" fill="#FFFFFF" fill-rule="nonzero"></path>
                        <path d="M10.2,6.1 C9.8,6.6 9,6.5 8.7,6.3 C8.5,6.1 8.4,5.9 8.4,5.7 C8.4,5.3 8.4,4.8 8.4,4.4 C8.4,4.1 8.4,3.9 8.4,3.6 C8.4,3.5 8.4,3.5 8.5,3.5 C8.7,3.5 8.8,3.5 9,3.5 C9.1,3.5 9.1,3.5 9.1,3.6 C9.1,4.1 9.1,4.7 9.1,5.2 C9.1,5.2 9.1,5.3 9.1,5.3 C9.1,5.7 9.2,5.8 9.5,5.8 C9.9,5.8 10.1,5.7 10.1,5.3 C10.1,5.1 10.1,5 10.1,4.8 C10.1,4.4 10.1,4 10.1,3.6 C10.1,3.5 10.1,3.5 10.2,3.5 C10.4,3.5 10.6,3.5 10.7,3.5 C10.8,3.5 10.8,3.5 10.8,3.6 C10.8,4.5 10.8,5.4 10.8,6.3 C10.8,6.4 10.8,6.4 10.7,6.4 C10.5,6.4 10.4,6.4 10.2,6.4 C10.1,6.4 10.1,6.4 10.1,6.3 C10.2,6.2 10.2,6.2 10.2,6.1 Z" id="Path" fill="#FFFFFF" fill-rule="nonzero"></path>
                        <path d="M5.6,5.5 C5.6,6 5.4,6.3 4.8,6.4 C4.2,6.5 3.6,6.4 3.1,6 C3,5.9 3,5.9 3.1,5.8 C3.2,5.7 3.3,5.6 3.4,5.5 C3.5,5.4 3.5,5.4 3.6,5.5 C3.8,5.7 4,5.8 4.3,5.8 C4.5,5.8 4.7,5.8 4.8,5.8 C4.9,5.8 5,5.7 5,5.6 C5,5.5 4.9,5.4 4.8,5.3 C4.5,5.2 4.3,5.2 4.1,5.2 C3.8,5.1 3.6,5 3.4,4.9 C3.3,4.8 3.2,4.7 3.2,4.5 C3.2,4.4 3.2,4.3 3.2,4.3 C3.2,4 3.3,3.8 3.6,3.6 C4.1,3.3 5.1,3.4 5.6,3.8 C5.6,3.8 5.6,3.9 5.6,3.9 C5.4,4 5.3,4.1 5.3,4.2 C5.3,4.3 5.2,4.3 5.2,4.2 C4.9,4.1 4.6,4 4.4,4 C4.2,4 4.1,4 4,4 C3.9,4 3.8,4.1 3.8,4.3 C3.9,4.4 4,4.5 4,4.5 C4.3,4.6 4.5,4.6 4.8,4.7 C5,4.7 5.1,4.8 5.3,4.9 C5.5,5 5.6,5.1 5.6,5.4 C5.6,5.4 5.6,5.5 5.6,5.5 Z" id="Path" fill="#FFFFFF" fill-rule="nonzero"></path>
                        <path d="M10.3,9.1 C10.3,9.2 10.3,9.3 10.3,9.3 C10.3,9.6 10.2,9.8 9.9,9.9 C9.6,10 9.3,10 9.1,9.8 C9,9.6 8.9,9.5 8.9,9.3 C8.9,9.1 8.9,8.9 8.9,8.8 C8.9,8.5 9.2,8.2 9.5,8.1 C9.8,8.1 10.1,8.2 10.3,8.5 C10.4,8.6 10.3,8.8 10.3,8.9 C10.3,9 10.3,9 10.3,9.1 Z" id="Path" fill="#000097" fill-rule="nonzero"></path>
                    </g>
                </g>
            </g>
        </g>
    </g>
</svg>
